svg/fluentui-system-icons/ic_fluent_panel_right_add_20_filled.svg

<svg width="20" height="20" viewBox="0 0 20 20" fill="none" xmlns="http://www.w3.org/2000/svg">
<path d="M18 6C18 4.89543 17.1046 4 16 4H4C2.89543 4 2 4.89543 2 6V14C2 15.1046 2.89543 16 4 16H9.20703C9.11588 15.6777 9.05337 15.3434 9.02242 15H4C3.44772 15 3 14.5523 3 14V6C3 5.44772 3.44772 5 4 5H12V9.59971C12.7501 9.21628 13.5998 9 14.5 9C15.8296 9 17.0491 9.47182 18 10.2572V6ZM14.5 19C16.9853 19 19 16.9853 19 14.5C19 12.0147 16.9853 10 14.5 10C12.0147 10 10 12.0147 10 14.5C10 16.9853 12.0147 19 14.5 19ZM14.5 12C14.7761 12 15 12.2239 15 12.5V14H16.5C16.7761 14 17 14.2239 17 14.5C17 14.7761 16.7761 15 16.5 15H15V16.5C15 16.7761 14.7761 17 14.5 17C14.2239 17 14 16.7761 14 16.5V15H12.5C12.2239 15 12 14.7761 12 14.5C12 14.2239 12.2239 14 12.5 14H14V12.5C14 12.2239 14.2239 12 14.5 12Z" fill="#212121"/>
</svg>

<svg xmlns="http://www.w3.org/2000/svg" width="20" height="20"><path d="M18 6a2 2 0 0 0-2-2H4a2 2 0 0 0-2 2v8a2 2 0 0 0 2 2h5.207a5.48 5.48 0 0 1-.185-1H4a1 1 0 0 1-1-1V6a1 1 0 0 1 1-1h8v4.6c.75-.384 1.6-.6 2.5-.6 1.33 0 2.55.472 3.5 1.257V6Zm-3.5 13a4.5 4.5 0 1 0 0-9 4.5 4.5 0 0 0 0 9Zm0-7a.5.5 0 0 1 .5.5V14h1.5a.5.5 0 0 1 0 1H15v1.5a.5.5 0 0 1-1 0V15h-1.5a.5.5 0 0 1 0-1H14v-1.5a.5.5 0 0 1 .5-.5Z"/></svg>
